dist/icons/svgs/power-off-outline.svg

<svg xmlns="http://www.w3.org/2000/svg" width="24" height="24" fill="currentcolor" class="icon-power-off-outline" viewBox="0 0 24 24">
  <path d="M12.9375 2.9375V12.3125C12.9375 12.8594 12.5078 13.25 12 13.25C11.4531 13.25 11.0625 12.8594 11.0625 12.3125V2.9375C11.0625 2.42969 11.4531 2 12 2C12.5078 2 12.9375 2.42969 12.9375 2.9375ZM7.23438 6.21875C5.35938 7.58594 4.1875 9.77344 4.1875 12.2344C4.1875 16.375 7.50781 19.7734 11.6484 19.7734C15.7891 19.7734 19.1484 16.4141 19.1484 12.2734C19.1484 9.77344 17.9766 7.58594 16.1016 6.21875C15.7109 5.90625 15.5938 5.32031 15.9062 4.89062C16.2188 4.5 16.8047 4.38281 17.2344 4.69531C19.5391 6.41406 21.0625 9.14844 21.0625 12.2344C21.0625 17.4297 16.8438 21.6094 11.6875 21.6094C6.49219 21.6094 2.3125 17.4297 2.3125 12.2344C2.3125 9.14844 3.79688 6.41406 6.10156 4.69531C6.53125 4.38281 7.11719 4.46094 7.42969 4.89062C7.74219 5.32031 7.625 5.90625 7.23438 6.21875Z"/>
</svg>

<svg xmlns="http://www.w3.org/2000/svg" width="24" height="24" fill="currentColor" class="icon-power-off-outline" viewBox="0 0 24 24">
  <path d="M12.938 2.938v9.375c0 .546-.43.937-.938.937-.547 0-.937-.39-.937-.937V2.938c0-.508.39-.938.937-.938a.95.95 0 0 1 .938.938m-5.704 3.28a7.4 7.4 0 0 0-3.046 6.016c0 4.141 3.32 7.54 7.46 7.54s7.5-3.36 7.5-7.5c0-2.5-1.171-4.688-3.046-6.055-.391-.313-.508-.899-.196-1.328.313-.391.899-.508 1.328-.196 2.305 1.72 3.828 4.453 3.828 7.54 0 5.195-4.218 9.374-9.375 9.374a9.353 9.353 0 0 1-9.374-9.375 9.38 9.38 0 0 1 3.789-7.539.94.94 0 0 1 1.328.196c.312.43.195 1.015-.196 1.328"/>
</svg>
